X:0350
T:Symon Brodie.
M:2/4
L:1/8
Q:1/4=128
I: :: ::
Z:Jack Campin * www.campin.me.uk * 2009
K:E Minor
EE  G>A     |FDFA|EE G>A|BEGB|dd e/d/c/B/ |ADFA|EE  G>A     |BEGB:|
e>f g/b/a/g/|fdfa|ee ge |bgeB|dd e/d/^c/B/|ADFA|E>F G/B/A/c/|BEGB:|

